images/indikatorenset/4716.svg

<?xml version="1.0" standalone="no"?><!DOCTYPE svg PUBLIC "-//W3C//DTD SVG 1.1//EN" "http://www.w3.org/Graphics/SVG/1.1/DTD/svg11.dtd"><svg xmlns:xlink="http://www.w3.org/1999/xlink" version="1.1" class="highcharts-root" style="font-family:arial;font-size:12px;" xmlns="http://www.w3.org/2000/svg" width="485" height="415"><desc>Created with Highstock 5.0.14</desc><defs><clipPath id="highcharts-ft6w5rc-6"><rect x="0" y="0" width="204" height="311" fill="none"></rect></clipPath><clipPath id="highcharts-ft6w5rc-7"><rect x="0" y="0" width="204" height="311" fill="none"></rect></clipPath></defs><rect fill="#fbfbfb" class="highcharts-background" x="0" y="0" width="485" height="415" rx="0" ry="0"></rect><rect fill="none" class="highcharts-plot-background" x="164" y="160" width="311" height="204"></rect><g class="highcharts-pane-group"></g><g class="highcharts-grid highcharts-xaxis-grid "><path fill="none" class="highcharts-grid-line" d="M 164 186.5 L 475 186.5" opacity="1"></path><path fill="none" class="highcharts-grid-line" d="M 164 211.5 L 475 211.5" opacity="1"></path><path fill="none" class="highcharts-grid-line" d="M 164 237.5 L 475 237.5" opacity="1"></path><path fill="none" class="highcharts-grid-line" d="M 164 262.5 L 475 262.5" opacity="1"></path><path fill="none" class="highcharts-grid-line" d="M 164 288.5 L 475 288.5" opacity="1"></path><path fill="none" class="highcharts-grid-line" d="M 164 313.5 L 475 313.5" opacity="1"></path><path fill="none" class="highcharts-grid-line" d="M 164 339.5 L 475 339.5" opacity="1"></path><path fill="none" class="highcharts-grid-line" d="M 164 364.5 L 475 364.5" opacity="1"></path><path fill="none" class="highcharts-grid-line" d="M 164 160.5 L 475 160.5" opacity="1"></path></g><g class="highcharts-grid highcharts-yaxis-grid "><path fill="none" stroke="#B9CFD7" stroke-width="0.5" class="highcharts-grid-line" d="M 163.75 160 L 163.75 364" opacity="1"></path><path fill="none" stroke="#B9CFD7" stroke-width="0.5" class="highcharts-grid-line" d="M 241.75 160 L 241.75 364" opacity="1"></path><path fill="none" stroke="#B9CFD7" stroke-width="0.5" class="highcharts-grid-line" d="M 319.75 160 L 319.75 364" opacity="1"></path><path fill="none" stroke="#B9CFD7" stroke-width="0.5" class="highcharts-grid-line" d="M 396.75 160 L 396.75 364" opacity="1"></path><path fill="none" stroke="#B9CFD7" stroke-width="0.5" class="highcharts-grid-line" d="M 475.25 160 L 475.25 364" opacity="1"></path></g><rect fill="none" class="highcharts-plot-border" x="164" y="160" width="311" height="204"></rect><g class="highcharts-axis highcharts-xaxis "><path fill="none" class="highcharts-tick" stroke="#FFFFFF" stroke-width="1" d="M 164 186.5 L 154 186.5" opacity="1"></path><path fill="none" class="highcharts-tick" stroke="#FFFFFF" stroke-width="1" d="M 164 211.5 L 154 211.5" opacity="1"></path><path fill="none" class="highcharts-tick" stroke="#FFFFFF" stroke-width="1" d="M 164 237.5 L 154 237.5" opacity="1"></path><path fill="none" class="highcharts-tick" stroke="#FFFFFF" stroke-width="1" d="M 164 262.5 L 154 262.5" opacity="1"></path><path fill="none" class="highcharts-tick" stroke="#FFFFFF" stroke-width="1" d="M 164 288.5 L 154 288.5" opacity="1"></path><path fill="none" class="highcharts-tick" stroke="#FFFFFF" stroke-width="1" d="M 164 313.5 L 154 313.5" opacity="1"></path><path fill="none" class="highcharts-tick" stroke="#FFFFFF" stroke-width="1" d="M 164 339.5 L 154 339.5" opacity="1"></path><path fill="none" class="highcharts-tick" stroke="#FFFFFF" stroke-width="1" d="M 164 364.5 L 154 364.5" opacity="1"></path><path fill="none" class="highcharts-tick" stroke="#FFFFFF" stroke-width="1" d="M 164 159.5 L 154 159.5" opacity="1"></path><path fill="none" class="highcharts-axis-line" stroke="#B9CFD7" stroke-width="0.5" d="M 163.75 160 L 163.75 364"></path></g><g class="highcharts-axis highcharts-yaxis "><path fill="none" class="highcharts-axis-line" d="M 164 364 L 475 364"></path></g><g class="highcharts-series-group"><g class="highcharts-series highcharts-series-0 highcharts-column-series highcharts-color-undefined " transform="translate(475,364) rotate(90) scale(-1,1) scale(1 1)" clip-path="url(#highcharts-ft6w5rc-7)"><rect x="185" y="311" width="13" height="1" fill="#256370" class="highcharts-point"></rect><rect x="160" y="311" width="13" height="1" fill="#256370" class="highcharts-point"></rect><rect x="109" y="308" width="13" height="4" fill="#256370" class="highcharts-point"></rect><rect x="83" y="304" width="13" height="8" fill="#256370" class="highcharts-point"></rect><rect x="32" y="303" width="13" height="9" fill="#256370" class="highcharts-point"></rect><rect x="7" y="300" width="13" height="12" fill="#256370" class="highcharts-point"></rect></g><g class="highcharts-markers highcharts-series-0 highcharts-column-series highcharts-color-undefined " transform="translate(475,364) rotate(90) scale(-1,1) scale(1 1)" clip-path="none"></g><g class="highcharts-series highcharts-series-1 highcharts-column-series highcharts-color-undefined " transform="translate(475,364) rotate(90) scale(-1,1) scale(1 1)" clip-path="url(#highcharts-ft6w5rc-7)"><rect x="185" y="302" width="13" height="9" fill="#71A3B5" class="highcharts-point"></rect><rect x="160" y="301" width="13" height="10" fill="#71A3B5" class="highcharts-point"></rect><rect x="109" y="274" width="13" height="34" fill="#71A3B5" class="highcharts-point"></rect><rect x="83" y="266" width="13" height="38" fill="#71A3B5" class="highcharts-point"></rect><rect x="32" y="250" width="13" height="53" fill="#71A3B5" class="highcharts-point"></rect><rect x="7" y="241" width="13" height="59" fill="#71A3B5" class="highcharts-point"></rect></g><g class="highcharts-markers highcharts-series-1 highcharts-column-series highcharts-color-undefined " transform="translate(475,364) rotate(90) scale(-1,1) scale(1 1)" clip-path="none"></g><g class="highcharts-series highcharts-series-2 highcharts-column-series highcharts-color-undefined " transform="translate(475,364) rotate(90) scale(-1,1) scale(1 1)" clip-path="url(#highcharts-ft6w5rc-7)"><rect x="185" y="274" width="13" height="28" fill="#FFBB58" class="highcharts-point"></rect><rect x="160" y="271" width="13" height="30" fill="#FFBB58" class="highcharts-point"></rect><rect x="109" y="223" width="13" height="51" fill="#FFBB58" class="highcharts-point"></rect><rect x="83" y="206" width="13" height="60" fill="#FFBB58" class="highcharts-point"></rect><rect x="32" y="189" width="13" height="61" fill="#FFBB58" class="highcharts-point"></rect><rect x="7" y="168" width="13" height="73" fill="#FFBB58" class="highcharts-point"></rect></g><g class="highcharts-markers highcharts-series-2 highcharts-column-series highcharts-color-undefined " transform="translate(475,364) rotate(90) scale(-1,1) scale(1 1)" clip-path="none"></g><g class="highcharts-series highcharts-series-3 highcharts-column-series highcharts-color-undefined " transform="translate(475,364) rotate(90) scale(-1,1) scale(1 1)" clip-path="url(#highcharts-ft6w5rc-7)"><rect x="185" y="56" width="13" height="218" fill="#FF8028" class="highcharts-point"></rect><rect x="160" y="47" width="13" height="224" fill="#FF8028" class="highcharts-point"></rect><rect x="109" y="45" width="13" height="178" fill="#FF8028" class="highcharts-point"></rect><rect x="83" y="38" width="13" height="168" fill="#FF8028" class="highcharts-point"></rect><rect x="32" y="44" width="13" height="145" fill="#FF8028" class="highcharts-point"></rect><rect x="7" y="34" width="13" height="134" fill="#FF8028" class="highcharts-point"></rect></g><g class="highcharts-markers highcharts-series-3 highcharts-column-series highcharts-color-undefined " transform="translate(475,364) rotate(90) scale(-1,1) scale(1 1)" clip-path="none"></g><g class="highcharts-series highcharts-series-4 highcharts-column-series highcharts-color-undefined " transform="translate(475,364) rotate(90) scale(-1,1) scale(1 1)" clip-path="url(#highcharts-ft6w5rc-7)"><rect x="185" y="47" width="13" height="9" fill="#C8C8C8" class="highcharts-point"></rect><rect x="160" y="39" width="13" height="8" fill="#C8C8C8" class="highcharts-point"></rect><rect x="109" y="41" width="13" height="4" fill="#C8C8C8" class="highcharts-point"></rect><rect x="83" y="34" width="13" height="4" fill="#C8C8C8" class="highcharts-point"></rect><rect x="32" y="38" width="13" height="6" fill="#C8C8C8" class="highcharts-point"></rect><rect x="7" y="30" width="13" height="4" fill="#C8C8C8" class="highcharts-point"></rect></g><g class="highcharts-markers highcharts-series-4 highcharts-column-series highcharts-color-undefined " transform="translate(475,364) rotate(90) scale(-1,1) scale(1 1)" clip-path="none"></g><g class="highcharts-series highcharts-series-5 highcharts-column-series highcharts-color-undefined " transform="translate(475,364) rotate(90) scale(-1,1) scale(1 1)" clip-path="url(#highcharts-ft6w5rc-7)"><rect x="185" y="0" width="13" height="47" fill="#8A8A8A" class="highcharts-point"></rect><rect x="160" y="0" width="13" height="39" fill="#8A8A8A" class="highcharts-point"></rect><rect x="109" y="0" width="13" height="41" fill="#8A8A8A" class="highcharts-point"></rect><rect x="83" y="0" width="13" height="34" fill="#8A8A8A" class="highcharts-point"></rect><rect x="32" y="0" width="13" height="38" fill="#8A8A8A" class="highcharts-point"></rect><rect x="7" y="0" width="13" height="30" fill="#8A8A8A" class="highcharts-point"></rect></g><g class="highcharts-markers highcharts-series-5 highcharts-column-series highcharts-color-undefined " transform="translate(475,364) rotate(90) scale(-1,1) scale(1 1)" clip-path="none"></g></g><text x="10" text-anchor="start" class="highcharts-title" style="color:#000000;font-size:14px;font-weight:bold;fill:#000000;" y="21"><tspan>Materielle oder finanzielle Hilfeleistungen durch</tspan><tspan dy="17" x="10">Arbeitskollegen, Freunde und Bekannte oder Nachbarn</tspan><title>Materielle oder finanzielle Hilfeleistungen durch Arbeitskollegen, Freunde und Bekannte oder Nachbarn</title></text><text x="10" text-anchor="start" class="highcharts-subtitle" style="color:#000000;font-size:12px;fill:#000000;" y="57"><tspan>«Erhalten Sie oder ein anderes Haushaltsmitglied (finanzielle oder materielle)</tspan><tspan dy="15" x="10">Hilfeleistungen von Arbeitskollegen, Freunden/Bekannten oder Nachbarn?»</tspan><title>«Erhalten Sie oder ein anderes Haushaltsmitglied (finanzielle oder materielle) Hilfeleistungen von Arbeitskollegen, Freunden/Bekannten oder Nachbarn?»</title></text><g class="highcharts-legend" transform="translate(155,80)"><rect fill="none" class="highcharts-legend-box" rx="0" ry="0" x="0" y="0" width="296" height="68" visibility="visible"></rect><g><g><g class="highcharts-legend-item highcharts-column-series highcharts-color-undefined highcharts-series-0" transform="translate(8,3)"><text x="21" style="color:#333333;font-size:12px;font-weight:normal;cursor:pointer;fill:#333333;" text-anchor="start" y="15"><tspan>Ja, regelmässig</tspan></text><rect x="2" y="4" width="12" height="12" fill="#256370" class="highcharts-point"></rect></g><g class="highcharts-legend-item highcharts-column-series highcharts-color-undefined highcharts-series-1" transform="translate(158,3)"><text x="21" y="15" style="color:#333333;font-size:12px;font-weight:normal;cursor:pointer;fill:#333333;" text-anchor="start"><tspan>Ja, hin und wieder</tspan></text><rect x="2" y="4" width="12" height="12" fill="#71A3B5" class="highcharts-point"></rect></g><g class="highcharts-legend-item highcharts-column-series highcharts-color-undefined highcharts-series-2" transform="translate(8,22)"><text x="21" y="15" style="color:#333333;font-size:12px;font-weight:normal;cursor:pointer;fill:#333333;" text-anchor="start"><tspan>Ja, selten</tspan></text><rect x="2" y="4" width="12" height="12" fill="#FFBB58" class="highcharts-point"></rect></g><g class="highcharts-legend-item highcharts-column-series highcharts-color-undefined highcharts-series-3" transform="translate(158,22)"><text x="21" y="15" style="color:#333333;font-size:12px;font-weight:normal;cursor:pointer;fill:#333333;" text-anchor="start"><tspan>Nein, nie</tspan></text><rect x="2" y="4" width="12" height="12" fill="#FF8028" class="highcharts-point"></rect></g><g class="highcharts-legend-item highcharts-column-series highcharts-color-undefined highcharts-series-4" transform="translate(8,41)"><text x="21" y="15" style="color:#333333;font-size:12px;font-weight:normal;cursor:pointer;fill:#333333;" text-anchor="start"><tspan>Nein, nicht möglich</tspan></text><rect x="2" y="4" width="12" height="12" fill="#C8C8C8" class="highcharts-point"></rect></g><g class="highcharts-legend-item highcharts-column-series highcharts-color-undefined highcharts-series-5" transform="translate(158,41)"><text x="21" y="15" style="color:#333333;font-size:12px;font-weight:normal;cursor:pointer;fill:#333333;" text-anchor="start"><tspan>Keine Angabe</tspan></text><rect x="2" y="4" width="12" height="12" fill="#8A8A8A" class="highcharts-point"></rect></g></g></g></g><g class="highcharts-axis-labels highcharts-xaxis-labels "><text x="149" style="color:#000000;cursor:default;font-size:11px;fill:#000000;" text-anchor="end" transform="translate(0,0)" y="177" opacity="1"><tspan>Arbeitskollegen 2013</tspan></text><text x="149" style="color:#000000;cursor:default;font-size:11px;fill:#000000;" text-anchor="end" transform="translate(0,0)" y="203" opacity="1"><tspan>Arbeitskollegen 2009</tspan></text><text x="149" style="color:#000000;cursor:default;font-size:11px;fill:#000000;" text-anchor="end" transform="translate(0,0)" y="235" opacity="1"></text><text x="149" style="color:#000000;cursor:default;font-size:11px;fill:#000000;" text-anchor="end" transform="translate(0,0)" y="254" opacity="1"><tspan>Nachbarn 2013</tspan></text><text x="149" style="color:#000000;cursor:default;font-size:11px;fill:#000000;" text-anchor="end" transform="translate(0,0)" y="279" opacity="1"><tspan>Nachbarn 2009</tspan></text><text x="149" style="color:#000000;cursor:default;font-size:11px;fill:#000000;" text-anchor="end" transform="translate(0,0)" y="311" opacity="1"></text><text x="149" style="color:#000000;cursor:default;font-size:11px;fill:#000000;" text-anchor="end" transform="translate(0,0)" y="330" opacity="1"><tspan>Freunde und Bekannte 2013</tspan></text><text x="149" style="color:#000000;cursor:default;font-size:11px;fill:#000000;" text-anchor="end" transform="translate(0,0)" y="356" opacity="1"><tspan>Freunde und Bekannte 2009</tspan></text></g><g class="highcharts-axis-labels highcharts-yaxis-labels "><text x="164" style="color:#000000;cursor:default;font-size:11px;fill:#000000;" text-anchor="middle" transform="translate(0,0)" y="383" opacity="1"><tspan>0%</tspan></text><text x="460.953125" style="color:#000000;cursor:default;font-size:11px;fill:#000000;" text-anchor="middle" transform="translate(0,0)" y="383" opacity="1"><tspan>100%</tspan></text><text x="241.75" style="color:#000000;cursor:default;font-size:11px;fill:#000000;" text-anchor="middle" transform="translate(0,0)" y="383" opacity="1">25%</text><text x="319.5" style="color:#000000;cursor:default;font-size:11px;fill:#000000;" text-anchor="middle" transform="translate(0,0)" y="383" opacity="1">50%</text><text x="397.25" style="color:#000000;cursor:default;font-size:11px;fill:#000000;" text-anchor="middle" transform="translate(0,0)" y="383" opacity="1">75%</text></g><text x="10" class="highcharts-credits" text-anchor="start" style="cursor:default;color:#000000;font-size:10px;fill:#000000;" y="400"><tspan>Quelle: Statistisches Amt Basel-Stadt, kantonale Familienbefragung: F74c-e</tspan></text></svg>

<svg class="highcharts-root" xmlns="http://www.w3.org/2000/svg" width="485" height="415" font-family="arial" font-size="12">
    <defs>
        <clipPath id="a">
            <path fill="none" d="M0 0h204v311H0z"/>
        </clipPath>
    </defs>
    <rect fill="#fbfbfb" class="highcharts-background" width="485" height="415" rx="0" ry="0"/>
    <path fill="none" class="highcharts-plot-background" d="M164 160h311v204H164z"/>
    <g class="highcharts-grid highcharts-xaxis-grid">
        <path fill="none" class="highcharts-grid-line" d="M164 186.5h311m-311 25h311m-311 26h311m-311 25h311m-311 26h311m-311 25h311m-311 26h311m-311 25h311m-311-204h311"/>
    </g>
    <g class="highcharts-grid highcharts-yaxis-grid">
        <path fill="none" stroke="#B9CFD7" stroke-width=".5" class="highcharts-grid-line" d="M163.75 160v204m78-204v204m78-204v204m77-204v204m78.5-204v204"/>
    </g>
    <path fill="none" class="highcharts-plot-border" d="M164 160h311v204H164z"/>
    <g class="highcharts-axis highcharts-xaxis">
        <path fill="none" class="highcharts-tick" stroke="#FFF" d="M164 186.5h-10m10 25h-10m10 26h-10m10 25h-10m10 26h-10m10 25h-10m10 26h-10m10 25h-10m10-205h-10"/>
        <path fill="none" class="highcharts-axis-line" stroke="#B9CFD7" stroke-width=".5" d="M163.75 160v204"/>
    </g>
    <g class="highcharts-axis highcharts-yaxis">
        <path fill="none" class="highcharts-axis-line" d="M164 364h311"/>
    </g>
    <g class="highcharts-series-group">
        <g class="highcharts-series highcharts-series-0 highcharts-column-series highcharts-color-undefined" transform="matrix(0 -1 -1 0 475 364)" clip-path="url(#a)">
            <path fill="#256370" class="highcharts-point" d="M185 311h13v1h-13zm-25 0h13v1h-13zm-51-3h13v4h-13zm-26-4h13v8H83zm-51-1h13v9H32zm-25-3h13v12H7z"/>
        </g>
        <g class="highcharts-series highcharts-series-1 highcharts-column-series highcharts-color-undefined" transform="matrix(0 -1 -1 0 475 364)" clip-path="url(#a)">
            <path fill="#71A3B5" class="highcharts-point" d="M185 302h13v9h-13zm-25-1h13v10h-13zm-51-27h13v34h-13zm-26-8h13v38H83zm-51-16h13v53H32zm-25-9h13v59H7z"/>
        </g>
        <g class="highcharts-series highcharts-series-2 highcharts-column-series highcharts-color-undefined" transform="matrix(0 -1 -1 0 475 364)" clip-path="url(#a)">
            <path fill="#FFBB58" class="highcharts-point" d="M185 274h13v28h-13zm-25-3h13v30h-13zm-51-48h13v51h-13zm-26-17h13v60H83zm-51-17h13v61H32zM7 168h13v73H7z"/>
        </g>
        <g class="highcharts-series highcharts-series-3 highcharts-column-series highcharts-color-undefined" transform="matrix(0 -1 -1 0 475 364)" clip-path="url(#a)">
            <path fill="#FF8028" class="highcharts-point" d="M185 56h13v218h-13zm-25-9h13v224h-13zm-51-2h13v178h-13zm-26-7h13v168H83zm-51 6h13v145H32zM7 34h13v134H7z"/>
        </g>
        <g class="highcharts-series highcharts-series-4 highcharts-column-series highcharts-color-undefined" transform="matrix(0 -1 -1 0 475 364)" clip-path="url(#a)">
            <path fill="#C8C8C8" class="highcharts-point" d="M185 47h13v9h-13zm-25-8h13v8h-13zm-51 2h13v4h-13zm-26-7h13v4H83zm-51 4h13v6H32zM7 30h13v4H7z"/>
        </g>
        <g class="highcharts-series highcharts-series-5 highcharts-column-series highcharts-color-undefined" transform="matrix(0 -1 -1 0 475 364)" clip-path="url(#a)">
            <path fill="#8A8A8A" class="highcharts-point" d="M185 0h13v47h-13zm-25 0h13v39h-13zm-51 0h13v41h-13zM83 0h13v34H83zM32 0h13v38H32zM7 0h13v30H7z"/>
        </g>
    </g>
    <text x="10" class="highcharts-title" y="21" color="#000" font-size="14" font-weight="700">
        <tspan>Materielle oder finanzielle Hilfeleistungen durch</tspan><tspan dy="17" x="10">Arbeitskollegen, Freunde und Bekannte oder Nachbarn</tspan><title>Materielle oder finanzielle Hilfeleistungen durch Arbeitskollegen, Freunde und Bekannte oder Nachbarn</title>
    </text>
    <text x="10" class="highcharts-subtitle" y="57" color="#000">
        <tspan>«Erhalten Sie oder ein anderes Haushaltsmitglied (finanzielle oder materielle)</tspan><tspan dy="15" x="10">Hilfeleistungen von Arbeitskollegen, Freunden/Bekannten oder Nachbarn?»</tspan><title>«Erhalten Sie oder ein anderes Haushaltsmitglied (finanzielle oder materielle) Hilfeleistungen von Arbeitskollegen, Freunden/Bekannten oder Nachbarn?»</title>
    </text>
    <g class="highcharts-legend" transform="translate(155 80)">
        <rect fill="none" class="highcharts-legend-box" rx="0" ry="0" width="296" height="68"/>
        <g class="highcharts-legend-item highcharts-column-series highcharts-color-undefined highcharts-series-0">
            <text x="21" y="15" color="#333" font-weight="400" cursor="pointer" fill="#333" transform="translate(8 3)">
                <tspan>Ja, regelmässig</tspan>
            </text>
            <path fill="#256370" class="highcharts-point" d="M10 7h12v12H10z"/>
        </g>
        <g class="highcharts-legend-item highcharts-column-series highcharts-color-undefined highcharts-series-1">
            <text x="21" y="15" color="#333" font-weight="400" cursor="pointer" fill="#333" transform="translate(158 3)">
                <tspan>Ja, hin und wieder</tspan>
            </text>
            <path fill="#71A3B5" class="highcharts-point" d="M160 7h12v12h-12z"/>
        </g>
        <g class="highcharts-legend-item highcharts-column-series highcharts-color-undefined highcharts-series-2">
            <text x="21" y="15" color="#333" font-weight="400" cursor="pointer" fill="#333" transform="translate(8 22)">
                <tspan>Ja, selten</tspan>
            </text>
            <path fill="#FFBB58" class="highcharts-point" d="M10 26h12v12H10z"/>
        </g>
        <g class="highcharts-legend-item highcharts-column-series highcharts-color-undefined highcharts-series-3">
            <text x="21" y="15" color="#333" font-weight="400" cursor="pointer" fill="#333" transform="translate(158 22)">
                <tspan>Nein, nie</tspan>
            </text>
            <path fill="#FF8028" class="highcharts-point" d="M160 26h12v12h-12z"/>
        </g>
        <g class="highcharts-legend-item highcharts-column-series highcharts-color-undefined highcharts-series-4">
            <text x="21" y="15" color="#333" font-weight="400" cursor="pointer" fill="#333" transform="translate(8 41)">
                <tspan>Nein, nicht möglich</tspan>
            </text>
            <path fill="#C8C8C8" class="highcharts-point" d="M10 45h12v12H10z"/>
        </g>
        <g class="highcharts-legend-item highcharts-column-series highcharts-color-undefined highcharts-series-5">
            <text x="21" y="15" color="#333" font-weight="400" cursor="pointer" fill="#333" transform="translate(158 41)">
                <tspan>Keine Angabe</tspan>
            </text>
            <path fill="#8A8A8A" class="highcharts-point" d="M160 45h12v12h-12z"/>
        </g>
    </g>
    <g class="highcharts-axis-labels highcharts-xaxis-labels" text-anchor="end" color="#000" cursor="default" font-size="11">
        <text x="149" y="177">
            <tspan>Arbeitskollegen 2013</tspan>
        </text>
        <text x="149" y="203">
            <tspan>Arbeitskollegen 2009</tspan>
        </text>
        <text x="149" y="254">
            <tspan>Nachbarn 2013</tspan>
        </text>
        <text x="149" y="279">
            <tspan>Nachbarn 2009</tspan>
        </text>
        <text x="149" y="330">
            <tspan>Freunde und Bekannte 2013</tspan>
        </text>
        <text x="149" y="356">
            <tspan>Freunde und Bekannte 2009</tspan>
        </text>
    </g>
    <g class="highcharts-axis-labels highcharts-yaxis-labels" text-anchor="middle" color="#000" cursor="default" font-size="11">
        <text x="164" y="383">
            <tspan>0%</tspan>
        </text>
        <text x="460.953" y="383">
            <tspan>100%</tspan>
        </text>
        <text x="241.75" y="383">
            25%
        </text>
        <text x="319.5" y="383">
            50%
        </text>
        <text x="397.25" y="383">
            75%
        </text>
    </g>
    <text x="10" class="highcharts-credits" y="400" cursor="default" color="#000" font-size="10">
        <tspan>Quelle: Statistisches Amt Basel-Stadt, kantonale Familienbefragung: F74c-e</tspan>
    </text>
</svg>
